X: 629
T: Half Past Four
B: jims roots
M:4/4
L:1/8
R: reel
Q: 1/4=100
K:Amaj
V:1 
|: (3efg | "A"a2 ab aecA | "D"defd "A"edcA | "A"a2 ab aecA | "D"defg "A"a2 ef |
"G"=gaba gfge | "D"defd efed | "A"c2 AB cABA | "E"GABG "A"A2 :|
|: (3EFG | "A"Acec "D"dAcA | "E"BAGA "D"BcdB |"A"Acec "D"dAcA | "E"BGGE "A"A2 (3EFG |
"A"Acec "D"dAcA | "E"BAGA "D"BcdB |"A"e3 e2 f ec |"E"BGGE "A"A2 :|
% abcbook-tune_id 6298c25d8d6701b054126655


% abcbook-boost 0
% abcbook-tablature 
% abcbook-transpose 
% abcbook-lastupdated 1654178398559
% abcbook-soundfonts 
% abcbook-repeats 1


